X:1
T: 
T:Ic seg adiu
T:Anonymus
T:504
T:Nr. 27 aus: Der ander theyl kurtzweiliger guter frischer Teutscher Liedlein (Georg Forster, Nürnberg, 1540)
T:Texter
C:Anonymous
%%score [ 1 2 3 4 ]
L:1/8
Q:1/2=80
M:4/2
K:Bb
V:1 treble nm="Sopran" snm="S"
V:2 treble nm="Alt" snm="A"
V:3 treble-8 nm="Tenor" snm="T"
V:4 bass nm="Bass" snm="B"
V:1
 z16 | z16 | B8 c4 c4 | d8 z8 | z4 e4 e4 e4 | d4 c2 B2 A2 G2 c4- | c2 B2 B8 A4 |1 B16 :|2 B16 || %9
w: ||Ic seg a-|diu,|wy twe~ ~wy|mœ- ten _ _ _ schei-||den,||
w: ||tot op ein|niew|end al om|vruecht ver- * * * mei-|||den,|
 z4 B4 f6 f2 | e4 d4 B4 c4 | d16 | z16 | z4 d4 d4 d4 | e6 d2 c4 B4 | A16 | z16 | z16 | %18
w: ic laet by|hu de her- te|myn||al war ghy|syt, dar sal ic|syn|||
w: |||||||||
 z4 F4 G4 A4 | B16 | z16 | z4 e4 e4 e4 | d4 c2 B2 A2 G2 c4- | c2 B2 B8 A4 | B16 | z16 | %26
w: tsy~ druck oft|pyn,||al- tyt sult|ghi die _ _ _ lief-|* * * ste|syn.||
w: ||||||||
 z4 e4 e4 e4 | d4 c2 B2 A2 G2 c4- | c2 B2 B8 A4 |"_-" B16 |] %30
w: al- tyt sult|ghi die _ _ _ lief-|* * * ste|syn.|
w: ||||
V:2
 F8 G4 G4 | A8 z4 F4 | G12 A4 | B8 z8 | z16 | z4 F4 A8 | G8 F8- |1 F8 D8 :|2 F8 D4 z4 || %9
w: Ic seg a-|diu, ic|seg a-|diu,||wy moe-|ten schei-|* den,|\- den.|
w: ic seq a-|diu tot|op ein|niew||om vrucht|ver- mei-||den, *|
 z4 B4 B6 A2 | G4 F4 G4 E4 | D16 | z16 | z4 F4 F4 F4 | G6 B2 A4 G4 | F16 | z16 | z16 | %18
w: ik laet by|hu dat her- te|myn||al war ghy|syt, dar sal ic|syn!|||
w: |||||||||
 z4 D4 E4 F4 | B,4 G4 G4 G4 | F6 G2 A4 G4- | G2 A2 B4 E8 | z4 F4 A8 | G8 F6 E2 | D4 G4 G4 G4 | %25
w: tsy druck oft|pyn, al- tyt sult|ghy _ die lief-|* * ste syn,|die lief-|* ste _|syn al- tyt sult|
w: |||||||
 F6 G2 A4 G4- | G2 A2 B4 E8 | z4 F4 A8 | G8 F8 |"_-" D16 |] %30
w: ghy _ die lief-|* * ste syn,|die lief-|* ste|syn.|
w: |||||
V:3
 z8 B8 | c4 c4 d8 | z4 e4 e4 e4 | d4 c2 B2 A2 G2 c4- | c2 B2 B8 A4 | B2 c2 d2 e2 f4 c4 | %6
w: Ic|seg a- diu,|wy~ ~twe~ ~wy|moe- * * * * *|* * ten schei-||
w: ic|seg a- diu|wy twe wy|moe- ten _ _ _ schei-|||
 e6 d2 c8 |1 B16 :|2 B16- || B16 | z16 | z4 B4 f6 f2 | e4 d4 B4 c4 | d16 | z16 | z4 c4 c4 c4 | %16
w: |den,||||ic laet by|hu de her- te|myn||al war ghy|
w: |den,|den,|_|||||||
 e6 d2 c4 B4 | A4 F4 G4 A4 | B8 z8 | z4 e4 e4 e4 | d4 c2 B2 A2 G2 c4- | c2 B2 B8 A4 | %22
w: syt dar sal ic|syn, tsy druck oft|pyn,|al- tyt sult|ghy die _ _ _ lief-|* * * ste|
w: ||||||
 B2 c2 d2 e2 f4 c4 | e6 d2 c8 | B4 e4 e4 e4 | d4 c2 B2 A2 G2 c4- | c2 B2 B8 A4 | %27
w: syn _ _ _ _ die|lief- * ste|syn, al- tyt sult|ghy die _ _ _ lief-|* * * ste|
w: |||||
 B2 c2 d2 e2 f4 c4 | e6 d2 c8 |"_-" B16 |] %30
w: syn, _ _ _ _ die|lief * ste|syn.|
w: |||
V:4
 B,8 G,4 G,4 | F,8 z8 | E,8 C,4 C,4 | B,,2 C,2 D,2 E,2 F,4 C,4 | E,6 D,2 C,8 | B,,8 z4 F,4 | %6
w: Ic seg a-|diu,|wij twe~ ~wij|moe- * * * * ten|schei- * *|den wy|
w: Ic seg a-|diu,|wij twe~ ~wij|moe- * * * * ten|schei- * *|den wy|
 G,4 E,4 F,8 |1 B,,8 z8 :|2 B,,16- || B,,16 | z16 | z4 B,4 B,6 A,2 | G,4 F,4 G,4 E,4 | D,16 | z16 | %15
w: moe- ten schei-|den.||||ic laet by|hu de her- te|myn||
w: moe- ten schei-||den,|_||||||
 z4 F,4 F,4 F,4 | G,6 B,2 A,4 G,4 | F,4 D,4 E,4 F,4 | B,,8 z4 F,4 | G,4 E,4 E,2 F,2 G,2 A,2 | %20
w: al war ghy|syt dar sal ic|syn, tsy druck oft|pyn, al-|tyt sult ghy _ _ _|
w: |||||
 B,4 A,2 G,2 F,4 C,4 | E,6 D,2 C,8 | B,,8 z4 F,4 | G,4 E,4 F,8 | G,4 E,4 E,2 F,2 G,2 A,2 | %25
w: _ _ _ _ die|lief- * ste|syn, die|lief- ste syn.|al- tyt sult _ _ _|
w: |||||
 B,4 A,2 G,2 F,4 C,4 | E,6 D,2 C,8 | B,,8 z4 F,4 | G,4 E,4 F,8 | B,,16 |] %30
w: _ ghy _ _ die|lief- * ste|syn, die|lief- * ste|syn.|
w: |||||

